X:1
T:Title
%%score { ( 1 3 ) | 2 }
L:1/8
Q:1/4=100
M:4/4
K:Ab
V:1 treble nm="Grand Piano"
V:3 treble 
V:2 bass 
V:1
 [CA]2 [CE]2 [Ec]2 [EA]2 | B>=A B>c d4 | G>_G =G>A B2 E2 | [CEA]2 [Ec]2 [Ee]4 | %4
w: A.~C.~Trumbull * * *||||
 [CA]2 [CE]2 [Ec]2 [EA]2 | B>=A B>c d4 | G>_G =G>A B2 c2 | A6 z2 | [GB]2 G>A [GB]2 [Ge]2 | %9
w: |||||
 [Ge]2 [F=d]2 [Fd]4 | [A=d]2 [FA]2 [Ad]3 [Ac] | [Ac]4 [GB]2 z2 | [GB]2 G>A [GB]2 [Ge]2 | %13
w: ||||
 [Ge]2 [F=d]2 [Fd]4 | [A=d]2 [FA]2 [Ac]2 [=DA]2 | [EG]6 z2 | [CA]2 [CE]2 [Ec]2 [EA]2 | %17
w: ||||
 B>=A B>c d4 | G>_G =G>A B2 E2 | [CEA]2 [Ec]2 [Ee]4 | [CA]2 [CE]2 [Ec]2 [EA]2 | B>=A B>c d4 | %22
w: |||||
 G>_G =G>A B2 c2 |[M:8/4] A8 z8 |] %24
w: ||
V:2
 [A,,A,]2 [A,,A,]2 [A,,A,]2 [C,A,]2 | [E,G,E]>[E,_G,E] [E,=G,E]>[E,A,E] [E,B,E]4 | %2
 [E,B,E]>[E,=A,E] [E,B,E]>[E,CE] [E,DE]2 [E,D]2 | A,,2 [A,,A,]2 [A,,C]4 | %4
 [A,,A,]2 [A,,A,]2 [A,,A,]2 [C,A,]2 | [E,G,E]>[E,_G,E] [E,=G,E]>[E,A,E] [E,B,E]4 | %6
 [E,B,E]>[E,=A,E] [E,B,E]>[E,CE] [E,DE]2 [E,E]2 | [A,CE]6 z2 | %8
 [E,,E,]2[K:treble] E>F[K:bass] [E,G,B,]2 z2 | [B,,,B,,]2 z2 [B,,B,]2 z2 | %10
 [B,,,B,,]2 z2 [B,,F,B,]2 z2 | [E,,E,]2 z2 [E,G,B,]2 z2 | %12
 [E,,E,]2[K:treble] E>F[K:bass] [E,G,B,]2 z2 | [B,,,B,,]2 z2 [B,,B,]2 z2 | %14
 [B,,,B,,]2 z2 [B,,F,B,]2 z2 | [E,,E,]2 z2 [E,B,]2 z2 | [A,,A,]2 [A,,A,]2 [A,,A,]2 [C,A,]2 | %17
 [E,G,E]>[E,_G,E] [E,=G,E]>[E,A,E] [E,B,E]4 | [E,B,E]>[E,=A,E] [E,B,E]>[E,CE] [E,DE]2 [E,D]2 | %19
 A,,2 [A,,A,]2 [A,,C]4 | [A,,A,]2 [A,,A,]2 [A,,A,]2 [C,A,]2 | %21
 [E,G,E]>[E,_G,E] [E,=G,E]>[E,A,E] [E,B,E]4 | [E,B,E]>[E,=A,E] [E,B,E]>[E,CE] [E,DE]2 [E,E]2 | %23
[M:8/4] [A,CE]8 z8 |] %24
V:3
 x8 | x8 | x8 | x8 | x8 | x8 | x8 | x8 | x8 | x8 | x8 | x8 | x8 | x8 | x8 | z4 D2 z2 | x8 | x8 | %18
 x8 | x8 | x8 | x8 | x8 |[M:8/4] x16 |] %24

